icons/jetpackcompose-light.svg

<svg width="256" height="256" viewBox="0 0 256 256" fill="none" xmlns="http://www.w3.org/2000/svg">
<rect width="256" height="256" rx="60" fill="#F4F2ED" />
<path opacity="0.999" fill-rule="evenodd" clip-rule="evenodd" d="M210.534 78.6315C199.81 85.1929 189.019 91.6545 178.16 98.016C176.868 96.6927 175.469 95.4602 173.963 94.319C160.275 86.6423 146.619 78.9153 132.996 71.1375C128.696 69.035 124.499 69.2348 120.406 71.737C107.217 79.5308 94.0272 87.3246 80.8377 95.1183C79.3092 96.2057 78.0767 97.5712 77.1407 99.215C77.0066 99.3653 76.8401 99.4321 76.6411 99.4149C65.6449 93.3847 54.7202 87.2562 43.8673 81.0296C44.6251 79.3713 45.5909 77.8391 46.765 76.4333C47.8725 75.3919 49.0382 74.4261 50.2622 73.5356C72.5632 60.4924 94.812 47.3695 117.009 34.1671C123.371 30.9127 129.766 30.8461 136.193 33.9672C158.709 46.6905 181.224 59.4135 203.739 72.1367C206.439 73.8711 208.703 76.036 210.534 78.6315Z" fill="#3CDB83"/>
<path fill-rule="evenodd" clip-rule="evenodd" d="M178.16 98.016C178.16 98.0825 178.16 98.1493 178.16 98.2158C172.469 101.36 166.941 104.758 161.573 108.408C160.305 106.572 158.64 105.207 156.577 104.311C148.317 99.6481 140.057 94.985 131.797 90.3222C129.226 88.8887 126.561 88.6889 123.803 89.7226C114.526 95.1953 105.266 100.724 96.0255 106.309C94.9538 107.146 94.1544 108.178 93.6275 109.407C88.262 105.957 82.733 102.76 77.0407 99.8146C76.9074 99.6813 76.7743 99.5482 76.6411 99.4149C76.8401 99.4321 77.0066 99.3653 77.1407 99.215C78.0767 97.5712 79.3091 96.2056 80.8377 95.1183C94.0271 87.3245 107.217 79.5308 120.406 71.737C124.499 69.2348 128.696 69.035 132.996 71.1375C146.619 78.9153 160.275 86.6423 173.963 94.319C175.469 95.4602 176.868 96.6927 178.16 98.016Z" fill="#37BF6E"/>
<path opacity="0.999" fill-rule="evenodd" clip-rule="evenodd" d="M210.534 78.6315C212.708 81.6561 213.873 85.0534 214.031 88.8233C214.165 114.603 214.165 140.382 214.031 166.161C213.638 173.515 210.34 179.143 204.139 183.048C182.19 195.92 160.275 208.843 138.392 221.817C135.296 223.59 131.965 224.489 128.4 224.515C128.4 211.859 128.4 199.201 128.4 186.545C128.4 186.479 128.4 186.412 128.4 186.345C130.621 186.368 132.686 185.802 134.595 184.647C146.752 177.402 158.942 170.208 171.166 163.064C173.067 162.014 174.866 160.815 176.561 159.467C178.531 157.36 179.697 154.862 180.058 151.973C180.192 136.052 180.192 120.132 180.058 104.211C179.998 103.333 179.865 102.467 179.659 101.613C179.263 100.423 178.763 99.291 178.16 98.2158C178.16 98.1493 178.16 98.0825 178.16 98.016C189.019 91.6545 199.81 85.1929 210.534 78.6315Z" fill="#4184F3"/>
<path opacity="0.996" fill-rule="evenodd" clip-rule="evenodd" d="M43.8673 81.0296C54.7202 87.2562 65.6449 93.3847 76.6411 99.4149C76.7744 99.5482 76.9075 99.6813 77.0407 99.8146C76.6591 100.109 76.426 100.509 76.3413 101.014C76.1157 102.075 75.9159 103.141 75.7418 104.211C75.6085 121.064 75.6085 137.917 75.7418 154.771C76.0669 157.558 77.4324 159.656 79.8385 161.066C93.6599 168.809 107.449 176.603 121.205 184.447C123.425 185.768 125.823 186.467 128.4 186.545C128.4 199.201 128.4 211.859 128.4 224.515C124.849 224.559 121.518 223.727 118.408 222.017C94.8265 208.693 71.2454 195.372 47.6643 182.049C44.1359 179.625 42.1709 176.261 41.769 171.957C41.6357 144.312 41.6357 116.668 41.769 89.0232C41.8517 86.1703 42.5512 83.5058 43.8673 81.0296Z" fill="#073041"/>
<path fill-rule="evenodd" clip-rule="evenodd" d="M161.573 108.408C162.31 109.554 162.71 110.82 162.772 112.205C162.834 123.266 162.767 134.324 162.572 145.378C161.958 147.302 160.825 148.868 159.175 150.074C149.768 155.683 140.309 161.212 130.798 166.661C129.948 166.924 129.082 167.09 128.2 167.161C126.386 167.167 124.721 166.667 123.204 165.662C114.011 160.466 104.819 155.27 95.6259 150.074C94.3398 149.321 93.507 148.222 93.1279 146.777C92.9946 134.92 92.9946 123.063 93.1279 111.205C93.2756 110.597 93.4421 109.997 93.6275 109.407C94.1545 108.178 94.9539 107.146 96.0256 106.309C105.266 100.724 114.526 95.1952 123.803 89.7226C126.561 88.6888 129.226 88.8887 131.797 90.3221C140.057 94.985 148.317 99.6481 156.577 104.311C158.64 105.207 160.305 106.572 161.573 108.408Z" fill="#D5EFFE"/>
<path fill-rule="evenodd" clip-rule="evenodd" d="M178.16 98.2158C178.763 99.291 179.263 100.423 179.659 101.613C179.864 102.467 179.998 103.333 180.058 104.211C180.192 120.132 180.192 136.052 180.058 151.973C179.697 154.862 178.531 157.36 176.561 159.467C174.866 160.815 173.067 162.014 171.165 163.064C158.942 170.208 146.752 177.402 134.595 184.647C132.686 185.802 130.621 186.368 128.4 186.345C128.27 179.951 128.203 173.556 128.2 167.161C129.082 167.09 129.948 166.924 130.798 166.661C140.309 161.212 149.768 155.683 159.175 150.074C160.825 148.868 161.958 147.302 162.572 145.378C162.733 145.088 162.833 144.755 162.872 144.379C163.038 133.621 163.005 122.896 162.772 112.205C162.71 110.82 162.31 109.554 161.573 108.408C166.941 104.758 172.469 101.36 178.16 98.2158Z" fill="#3870B2"/>
<path fill-rule="evenodd" clip-rule="evenodd" d="M77.0408 99.8146C82.733 102.76 88.262 105.957 93.6275 109.407C93.4421 109.997 93.2756 110.597 93.1279 111.205C92.9946 123.063 92.9946 134.92 93.1279 146.777C93.507 148.222 94.3397 149.321 95.6259 150.074C104.819 155.27 114.011 160.466 123.204 165.662C124.721 166.667 126.386 167.167 128.2 167.161C128.203 173.556 128.27 179.951 128.4 186.345C128.4 186.412 128.4 186.479 128.4 186.545C125.823 186.467 123.425 185.768 121.205 184.447C107.449 176.603 93.6599 168.809 79.8385 161.066C77.4325 159.656 76.067 157.558 75.7418 154.771C75.6085 137.917 75.6085 121.064 75.7418 104.211C75.9159 103.141 76.1157 102.075 76.3413 101.014C76.4261 100.509 76.6591 100.109 77.0408 99.8146Z" fill="#041619"/>
<path opacity="0.976" fill-rule="evenodd" clip-rule="evenodd" d="M162.772 112.205C163.005 122.896 163.038 133.621 162.872 144.379C162.833 144.755 162.733 145.088 162.572 145.378C162.767 134.324 162.834 123.266 162.772 112.205Z" fill="#6293CB"/>
</svg>

<svg xmlns="http://www.w3.org/2000/svg" width="256" height="256" fill="none"><rect width="256" height="256" fill="#F4F2ED" rx="60"/><path fill="#3CDB83" fill-rule="evenodd" d="M210.534 78.632a1971 1971 0 0 1-32.374 19.384 37.6 37.6 0 0 0-4.197-3.697 6155 6155 0 0 1-40.967-23.181q-6.45-3.154-12.59.599L80.838 95.118a12.6 12.6 0 0 0-3.697 4.097.57.57 0 0 1-.5.2A1950 1950 0 0 1 43.867 81.03a20.3 20.3 0 0 1 2.898-4.597 36 36 0 0 1 3.497-2.897 10537 10537 0 0 0 66.747-39.369q9.543-4.88 19.184-.2l67.546 38.17q4.05 2.601 6.795 6.495" clip-rule="evenodd" opacity=".999"/><path fill="#37BF6E" fill-rule="evenodd" d="M178.16 98.016v.2a211 211 0 0 0-16.587 10.192q-1.902-2.753-4.996-4.097l-24.78-13.989q-3.857-2.15-7.994-.6a3031 3031 0 0 0-27.778 16.587 7.75 7.75 0 0 0-2.398 3.098 204 204 0 0 0-16.586-9.592l-.4-.4a.57.57 0 0 0 .5-.2 12.6 12.6 0 0 1 3.697-4.097l39.568-23.381q6.14-3.753 12.59-.6a6155 6155 0 0 0 40.967 23.182 37.6 37.6 0 0 1 4.197 3.697" clip-rule="evenodd"/><path fill="#4184F3" fill-rule="evenodd" d="M210.534 78.632q3.26 4.536 3.497 10.191.201 38.67 0 77.338-.59 11.03-9.892 16.887a15998 15998 0 0 0-65.747 38.769 20.1 20.1 0 0 1-9.992 2.698v-38.17a11.5 11.5 0 0 0 6.195-1.698 4966 4966 0 0 1 36.571-21.583 39 39 0 0 0 5.395-3.597q2.955-3.16 3.497-7.494.201-23.881 0-47.762a15.6 15.6 0 0 0-.399-2.598 19.5 19.5 0 0 0-1.499-3.397v-.2a1971 1971 0 0 0 32.374-19.385" clip-rule="evenodd" opacity=".999"/><path fill="#073041" fill-rule="evenodd" d="M43.867 81.03a1950 1950 0 0 0 32.774 18.385l.4.4q-.573.441-.7 1.199a68 68 0 0 0-.6 3.197 3196 3196 0 0 0 0 50.56q.489 4.18 4.097 6.295a6266 6266 0 0 1 41.367 23.381 14.7 14.7 0 0 0 7.195 2.098v37.97a19.9 19.9 0 0 1-9.992-2.498l-70.744-39.968q-5.292-3.636-5.895-10.092a8600 8600 0 0 1 0-82.934q.124-4.28 2.098-7.993" clip-rule="evenodd" opacity=".996"/><path fill="#D5EFFE" fill-rule="evenodd" d="M161.573 108.408a7.5 7.5 0 0 1 1.199 3.797q.093 16.592-.2 33.173-.922 2.887-3.397 4.696a1889 1889 0 0 1-28.377 16.587q-1.275.394-2.598.5a8.8 8.8 0 0 1-4.996-1.499l-27.578-15.588q-1.93-1.13-2.498-3.297a1582 1582 0 0 1 0-35.572q.221-.912.5-1.798a7.75 7.75 0 0 1 2.398-3.098q13.86-8.378 27.777-16.586 4.137-1.551 7.994.6l24.78 13.988q3.094 1.344 4.996 4.097" clip-rule="evenodd"/><path fill="#3870B2" fill-rule="evenodd" d="M178.16 98.216a19.5 19.5 0 0 1 1.499 3.397q.308 1.281.399 2.598.201 23.881 0 47.762-.542 4.334-3.497 7.494a38.7 38.7 0 0 1-5.396 3.597 4987 4987 0 0 0-36.57 21.583 11.5 11.5 0 0 1-6.195 1.698 966 966 0 0 1-.2-19.184 12 12 0 0 0 2.598-.5 1889 1889 0 0 0 28.377-16.587q2.476-1.81 3.397-4.696.242-.435.3-.999a864 864 0 0 0-.1-32.174 7.5 7.5 0 0 0-1.199-3.797 211 211 0 0 1 16.587-10.192" clip-rule="evenodd"/><path fill="#041619" fill-rule="evenodd" d="M77.04 99.815a204 204 0 0 1 16.587 9.592q-.277.886-.5 1.798a1582 1582 0 0 0 0 35.572q.57 2.168 2.499 3.297l27.578 15.588a8.8 8.8 0 0 0 4.996 1.499q.005 9.593.2 19.184v.2a14.7 14.7 0 0 1-7.195-2.098 6266 6266 0 0 0-41.366-23.381q-3.61-2.115-4.097-6.295a3196 3196 0 0 1 0-50.56q.261-1.605.6-3.197.126-.758.699-1.2" clip-rule="evenodd"/><path fill="#6293CB" fill-rule="evenodd" d="M162.772 112.205q.35 16.037.1 32.174a2.6 2.6 0 0 1-.3.999q.293-16.581.2-33.173" clip-rule="evenodd" opacity=".976"/></svg>
